X: 22
T: The High Reel
M: 4/4
L: 1/8
Z: 2006 John Chambers <jc:trillian.mit.edu>
K: AMix
|: "A"a2 fa ecAB | c{B}A eA fAeA | a2 fa ecAc | "G"Bcdc BGG2 |
|  "A"a2 fa ecAB | cdef "G"g2 fg | "D"afge fdec | "G"Bcdc BG G2 :|
|: "A"c{B}A eA fAeA | c{B}A af ecA2 | c{B}A eA fAeA | "G"Bcdc BGG2 |
|  "A"c{B}A eA fAed | cdef "G"g2 fg | "D"afge fdec | "G"Bcdc BG G2 :|

%%sep 1 1 500

